X:1
T:Title
L:1/8
Q:1/4=100
M:4/4
K:Eb
V:1 treble nm="Grand Piano"
V:1
 C D2 E D2 CC- | C E2 G F4 | F G2 A G3 D | D F2 G D4 | D F2 E E2 D2 | D F2 E D4 | D E2 F G2 FF- | %7
w: ????~???? * * * * *|||||||
 F G2 G GF/E/ FE/D/ | C D2 E D2 CC- | C E2 G F4 | F G2 A G3 D | D F2 G D4 | D F2 E E2 D2 | %13
w: ||||||
 D F2 E D4 | D E2 F G2 FF- | F G2 G G3 G | c2 BA G4 | G c2 c B3 G | G F2 G G4 | B B2 =A c3 B- | %20
w: |||||||
 B A2 G F4 | F F2 F F3 A- | A G2 F F3 d- | d =B2 G F3 E- | E F2 G G3 d- | d =B2 G F2 G2- | %26
w: ||||||
 G F2 G C4 |] %27
w: |

